X:1
T:Standin In The Need of Prayer
T:Most done toiling here
T:Copyright 1918 by Homer A. Rodeheaver
T:Rodeheaver's Plantation Melodies
T:Rodeheaver's Plantation Melodies
Z:Rodeheaver's Plantation Melodies
%%score [ 1 2 3 4 ]
L:1/8
Q:1/4=80
M:4/4
K:F
V:1 treble nm="Soprano" snm="S."
V:2 treble nm="Alto" snm="A."
V:3 bass nm="Tenor" snm="T."
V:4 bass nm="Bass" snm="B."
V:1
|: (A3 c/A/ c4) | GBBB Gc c/c/c | (A3 c/A/ c2) f>f |1 eeed cc c/c/c :|2 eeed c3!fine! || c/-c/ || %6
w: |||||I- *|
 =B/-B/c/-c/ B/-B/c/-c/ B/-B/c G2 | eeed c3 c | =B/-B/c/-c/ B/-B/c/-c/ | =Bc G2 | eeed c4!D.C.! |] %11
w: love- * to- * shout- * I- * love- * to sing.|* * * * * I|love- * tu- * praise- * my- *|Heav'n- ly King.||
V:2
|: F8 | EGGG EC C/C/C | F6 A>A |1 GGGF EC C/C/C :|2 GGGF E3 || z || z8 | GGGF E4 | z4 | z4 | %10
w: (m...)-|Most done toil- ing here, O breth- e- ren.|(m...)- And I'm|most done toil- ing here. O breth- e- ren.|most done toil- ing here.|||Most done toil- ing here,|||
 GGGF E4 |] %11
w: Most done toil- ing here.|
V:3
|: (C3 A,/C/ A,4) | G,B,B,B, G,C C/C/C | ((C3 A,/C/ A,2)) C>C |1 CCC=B, CC C/C/C :|2 CCC=B, C3 || %5
w: |||||
 z || z8 | CCC=B, A,4 | z4 | z4 | CCC=B, G,C C/C/C |] %11
w: |||||* * * * * O breth- e- ren.|
V:4
|: F,8 | E,G,G,G, E,C, C,/C,/C, | F,6 F,>F, |1 G,G,G,G, C,C, C,/C,/C, :|2 G,G,G,G, C,3 || z || z8 | %7
 G,,G,,G,,G,, C,4 | z4 | z4 | G,,G,,G,,G,, C,C, C,/C,/C, |] %11

